X:227
T: ICH WEISS ZWEI HOHE MAUERN
N: F0395
O: Europa, Mitteleuropa, Deutschland
R: Vaterlands -, Heimat - Lied, nationalistisch
M: 2/4
L: 1/16
K: Bb
F2 | B2B2BAGA | B4c2
c2 | d2B2G2c2 | B4A2
F2 | B2B2BAGA | B4c2
c2 | dfdBAcBG | G4F2
F2 | e3dc2c2 | d3cB2
d2 | fedcedcB | d2d2c2
F2 | B2B2GABG | F3ED2
F2 | GedccBBA | A4B2

@@@ Tune index: 5658
